!!!!SEGMENT: pl-cz--ii-87--001-001_zientarski-romuald-teodor--msza-swieta-kyrie.krn
!!!cenid: 18xx:1162
!!!COM: Zientarski, Romuald Teodor
!!!COM-rismid: pe30001080
!!!CDT: ~1830-1874
!!!CNT: Polish
!!!OPR: Msza Święta
!!!OTL: Kyrie
!!!OMV: 001
!!!PDT: 1888
!!!AGN: Sacred; Mass
!!!SMS-siglum: PL-CZ
!!!SMS-shelfmark: II-87
!!!SMS-shelfwork: 001-001 M
!!!SMS-variant:
!!!SMS-altvar:
!!!NIFC-rismid: 300033224
!!!system-decoration: s1[(s2,s3)]
!!!key:
**kern	**kern	**dynam	**kern	**text	**text	**dynam
*part3	*part2	*part2	*part1	*part1	*part1	*part1
*staff3	*staff2	*	*staff1	*staff1	*staff1	*
*Iempty	*Iempty	*	*Iempty	*	*	*
*I"P3	*I"P2	*	*I"P1	*	*	*
*clefF4	*clefG2	*	*clefG2	*	*	*
*k[]	*k[]	*	*k[]	*	*	*
*C:	*C:	*	*C:	*	*	*
*M3/4	*M3/4	*	*M3/4	*	*	*
*^	*	*	*	*	*	*
!	!	!	!	!LO:TX:a:Bi:t=Kyrie.	!	!	!
!	!	!	!LO:HP:b=2	!	!	!	!
4r;>	[<4CC;>\	4r;>	<[	4r;>	.	.	.
=1	=1	=1	=1	=1	=1	=1	=1
*	*	*^	*	*	*	*	*
!	!	!	!	!	!LO:TX:a:Bi:t=Slowa Wladysława Syrokomli. Muzyka R. Zientarskiego.	!	!	!
!	!	!LO:TX:a:Bi:t=senza tempo	!	!	!	!	!	!
!	!	!	!	!LO:HP:b=2	!	!	!	!
8r	[<2.C 2.CC\_<	8r	8ryy	>	2.r	.	.	.
8B-X/	.	8e/	8c\	.	.	.	.	.
4A/	.	4f/	2f [<2c\	.	.	.	.	.
4A-X/	.	4cc/	.	]	.	.	.	.
=2	=2	=2	=2	=2	=2	=2	=2	=2
2G/	2.C_< 2.CC\_<	(>2e/	2.c\]	.	2.r	.	.	.
4F#X/	.	4a 4e-X/)	.	.	.	.	.	.
*	*	*v	*v	*	*	*	*	*
=3	=3	=3	=3	=3	=3	=3	=3
2G/	2C_< 2CC\_<	2g 2f 2d 2B/	.	2.r	.	.	.
!	!	!LO:N:vis=8	!	!	!	!	!
4B 4G 4F/	4C] 4CC\]	8.d/L	.	.	.	.	.
.	.	16d/Jk	.	.	.	.	.
*v	*v	*	*	*	*	*	*
=4	=4	=4	=4	=4	=4	=4
4c 4G 4E 4C 4CC/	4r	.	4r	.	.	.
4r	4r	.	4r	.	.	.
!	!	!LO:DY:b:rj	!	!	!	!LO:DY:b:rj
[>4G [<4C\	4g 4e/	p	[<4g/	1 Przy	2 Niech	p
=5	=5	=5	=5	=5	=5	=5
*	*^	*	*	*	*	*
2G] 2C\]	4g/	(<2.e\	.	4g/]	.	.	.
.	4ee/	.	.	4ee\	swię-	na-	.
4G#X 4BB\	4dd\)	.	.	8dd\	-tych	-sze	.
.	.	.	.	8dd\	ta-	wes-	.
=6	=6	=6	=6	=6	=6	=6	=6
(<4.A 4.AA/	(>4.cc/	2a 2e\	.	4.cc\	-je-	-tchnie-	.
8G 8GG/	8cc#X/)	.	.	8cc#X\	.	.	.
8FL 8FF/	(<8ddL [<8a 8d/	4ryy	.	8dd\	-mnic	-nia	.
8C#XJ 8CC#X/)	8eeJ 8a] 8e/)	.	.	8ee\	stra-	i	.
=7	=7	=7	=7	=7	=7	=7	=7
(<4.D 4.DD/	4.ff 4.a 4.f\	2ryy	.	(>4.ff\	-szli-	mo-	.
8E 8EE/	8ee 8a 8g\	.	.	8ee\)	.	.	.
8FL 8FF/	8dd/L	4a 4d\	.	8dd\	-wej	-dły	.
8F#XJ 8FF#X/)	8cc/J	.	.	8cc\	o-	w swią-	.
*	*v	*v	*	*	*	*	*
=8	=8	=8	=8	=8	=8	=8
*^	*	*	*	*	*	*
[>2G 2GG/	2ryy	2b 2g 2d/	.	4b\	-fie-	-ty-	.
.	.	.	.	8b\	-rże	-ni	.
.	.	.	.	8r	.	.	.
4G/_>	(<4F\	4dd 4g 4d/	.	4dd\	gdy	Twa	.
!!LO:LB:g=original
=9	=9	=9	=9	=9	=9	=9	=9
2.G/]	2.E-X\)	2.cc 2.g 2.c/	.	4cc\	lud	ła-	.
.	.	.	.	4.cc\	Twuj	-ska	.
.	.	.	.	8cc\	z mo-	god-	.
=10	=10	=10	=10	=10	=10	=10	=10
*	*	*^	*	*	*	*	*
8G/L	8C\L	4ee-X 4e-X\	2g/	.	4ee-X\	-dli-	-ne-	.
8c/J	8E-X\J	.	.	.	.	.	.	.
4B/	4G\	4dd 4d\	.	.	4dd\	-twą	-mi	.
[>4c/	[<4A\	4dd/	4cc 4f#X\	.	8r	.	.	.
.	.	.	.	.	8dd\	przed	przy-	.
=11	=11	=11	=11	=11	=11	=11	=11	=11
2.c/]	2.A] 2.D\	2ff#X/	2cc 2f#X\	.	2ff#X\	oł-	-js-	.
!	!	!	!	!	!LO:N:vis=4	!	!	!
.	.	8.ee/L	4ryy	.	8.ee\	-tasz	-cia	.
.	.	16dd/Jk	.	.	16dd\	się	u-	.
*v	*v	*	*	*	*	*	*	*
=12	=12	=12	=12	=12	=12	=12	=12
*	*	*^	*	*	*	*	*
4B 4G\	4dd 4g\	2ryy	2ryy	.	4dd\	zbe-	-czy-	.
8G 8GG/	8b 8g 8d/	.	.	.	8b\	-rże	-ni	.
8r	8r	.	.	.	8r	.	.	.
4r	8dd/L	4b\	8g\L	.	8dd\L	Wy-	Daj	.
.	8dd#X/J	.	8f\J	.	8dd#X\J	.	.	.
*	*v	*v	*v	*	*	*	*	*
=13	=13	=13	=13	=13	=13	=13
!	!	!	!	!	!	!LO:HP:a
4G 4C\	4ee 4cc 4e/	.	4ee\	-słu-	mys-	<
2A 2AA\	2ee 2cc#X 2a 2g\	.	4ee\	-chaj	-li	[
!	!	!	!	!	!	!LO:HP:a
.	.	.	8r	.	.	>
.	.	.	8ee\	ser-	daj	]]
=14	=14	=14	=14	=14	=14	=14
4A 4D\	4ff 4a 4f\	.	4ff\	-de-	ser-	.
2G 2GG/	2dd 2b 2g 2f/	.	4dd\	-czne	-ca	.
.	.	.	8r	.	.	.
.	.	.	8dd\	wy-	daj	.
!!LO:LB:g=original
=15	=15	=15	=15	=15	=15	=15
*	*^	*	*	*	*	*
(>8c\L	(>8eeL 8e\	4g/	.	(>8ee\L	-słu-	ser-	.
8G\J	8ddJ 8f\	.	.	8dd\J)	.	.	.
4E\)	4.cc 4.c/	2g\	.	4.cc\	-chaj	-ca	.
4C/	.	.	.	.	.	.	.
.	8ee 8e/)	.	.	8ee\	wo-	nam	.
=16	=16	=16	=16	=16	=16	=16	=16
[>2.G\	(>2ee 2cc/	2.g\	.	2ee\	-ła-	czy-	.
.	4dd 4b/)	.	.	4dd\	-nie	-ste	.
=17	=17	=17	=17	=17	=17	=17	=17
8G\L]	4dd/	8b\L	.	4dd\	Zli-	Zli-	.
8F\J	.	8a\J	.	.	.	.	.
4E\	4ee/	4g#X\	.	4ee\	-tuj	-tuj	.
4G#X\	4dd 4g# 4e/	4ryy	.	8dd\	się	się	.
.	.	.	.	8dd\	nad	nad	.
=18	=18	=18	=18	=18	=18	=18	=18
4A\	4cc 4a 4e/	4ryy	.	(>4cc\	na-	na-	.
(>4D\	4ff/	2a 2f\	.	4ff\)	.	.	.
4F\)	4dd/	.	.	4dd\	-mi	-mi	.
=19	=19	=19	=19	=19	=19	=19	=19
*^	*	*	*	*	*	*	*
2.G/	4G\	[>4cc/	(>8gL 8e\	.	4cc\	o	o	.
.	.	.	8f#XJ 8d#X\	.	.	.	.	.
.	[>2GG\	4.cc/]	2fn 2dn\)	.	(>4.cc^>\	pa-	Chri-	.
.	.	(8b/	.	.	8b\)	.	.	.
*	*	*v	*v	*	*	*	*	*
=20	=20	=20	=20	=20	=20	=20	=20
4G/	4GG\]	4dd 4g 4f/)	.	4dd\	.	.	.
4C/	4CC\	4cc 4g 4e/	.	4cc\	-nie .	-ste.	.
!	!	!LO:TX:b:Bi:t=D.S.	!	!	!	!	!
4r	4ryy	4r	.	4r	.	.	.
*v	*v	*	*	*	*	*	*
==	==	==	==	==	==	==
*-	*-	*-	*-	*-	*-	*-
!!title: @{OTL};
!!!RDF**kern: > = above
!!!RDF**kern: < = below
!!!RDF**kern: | = vertical stroke
!!!RDF**kern: N = linked
!!!RDF**kern: i = editorial accidental
!!!RDF**kern: l = terminal long
!!!AIN: 3 empty
!!!ENC: Andrzej Borzym
!!!END: 2020-11-07
!!!EED: Wojciech Jakubiak-Danek
!!!EST: 2021-11-13
!!!URL-scan: http://repozytorium.nifc.pl/skany/pl-cz-nut--ii-87
!!!ONB-nifc: UWAGA: części Mszy: Kyrie, Gloria, Graduale, Credo, Et incarnatus, Et resurrexit, Offertorium, Sanctus, Benedictus, Agnus Dei, Benedictio
